X:1
T:The World Must Be Taken
T:The World Must Be Taken
T:George Tabor Thompson
T:Lanta Wilson Smith, 1894
T:Public Domain Courtesy of the Cyber Hymnal™
T:Public Domain Courtesy of the Cyber Hymnal™
C:George Tabor Thompson
Z:Public Domain
Z:Courtesy of the Cyber Hymnal™
%%score ( 1 2 ) ( 3 4 )
L:1/8
Q:1/4=100
M:4/4
K:D
V:1 treble 
V:2 treble 
V:3 bass 
V:4 bass 
V:1
 ([DF]>[EG]) | [FA]2 [Fd]>[Fd] [Fc][Fc] [DB]>[DB] | [FA]6 [FA]>[FA] | %3
w: 1.~The *|world must be tak- en for the|Lord; On- ward,|
w: 2.~The *|world must be tak- en for the|Lord; And if|
w: 3.~The *|world must be tak- en for the|Lord; Fi- nal|
w: 4.~The *|world must be tak- en for the|Lord; Ev- ery|
 [GB]2 [GB]>[GB] [FA][FA] [EG]>[DF] | [CE]6 ([DF]>[FA]) | [Fd]2 [Fd]>[Ac] [Ge][Gd] [Gc]>[GB] | %6
w: sol- diers, and arm ye for the|fight. “In *|His name” now watch and fight and|
w: faith- ful we know that we shall|win. Each~ *|day there’s a shout a- long the|
w: vic- tory is near- er ev- ery|day. The *|past holds no re- cord of a|
w: na- tion and land shall yet be|won. His~ *|ban- ner shall wave o’er all the|
 [FA]6 [FA]>[Ad] | [Gc]2 [Gc]>[GB] [GA][GA] [GB]>[Gc] | [Fd]6 ||"^Refrain" [Ec]>[Fd] | %10
w: pray, Till all|foes fear and trem- ble at the|sight.||
w: line As we|cap- ture some cit- a- del of|sin.|Ev- er|
w: time When so|ma- ny as now the Lord o-|bey.||
w: world, For our|God with His ar- my march- es|on.||
 e4 A2 [GB]>[FA] | d4 A2 ([DF]>[EG]) | [FA]2 [Ad]>[Ad] [Gc][Gc] [Fd]>[Fd] | e6 [FA]>[GB] | %14
w: ||||
w: on- ward, Christ- ian|sol- dier, The *|world must be tak- en for the|Lord, Ev- er|
w: ||||
w: ||||
 A4 F d2 [Ae]>[Ad] | c4 B2 (c>B) | [EA]2 [EA]>[GB] [FA][EG] [DF]>[CE] | D6 |] %18
w: ||||
w: on- ward be your watch-|word, The world *|must be tak- en for the Lord.||
w: ||||
w: ||||
V:2
 x2 | x8 | x8 | x8 | x8 | x8 | x8 | x8 | x6 || x2 | (G>GGG G)G x2 | (F>FFF F)F x2 | x8 | %13
 (E2 A>A A2) x2 | (F>F F F F) x4 | (GGGG G)G G2 | x8 | (A,2 B,B, A,2) |] %18
V:3
 [D,A,]2 | [D,D]2 [D,A,]>[D,A,] [F,^A,][F,A,] [G,B,]>[G,B,] | [D,D]6 [D,D]>[D,D] | %3
w: ~|~ ~ ~ ~ ~ ~ ~|~ ~ ~|
 [G,D]2 [G,D]>[G,D] [D,D][D,D] [C,A,]>[D,A,] | [A,,A,]6 [D,A,]2 | %5
w: ~ ~ ~ ~ ~ ~ ~|~ ~|
 [D,A,]2 [D,A,]>[F,A,] [G,B,][G,B,] [G,B,]>[G,D] | [D,D]6 [D,A,]>[F,A,] | %7
w: ~ ~ ~ ~ ~ ~ ~|~ ~ ~|
 A,2 A,>A, [A,,A,][A,,A,] [A,,A,]>[A,,A,] | [D,A,]6 || [A,,A,]>[A,,A,] | %10
w: ~ ~ ~ ~ ~ ~ ~|~|Ev- er|
 [A,,A,]>[A,,A,] [A,,A,][A,,A,] [A,,A,][A,,C] [D,D]>[D,D] | %11
w: on- ward, ev- er on- ward Christ- ian|
 [D,A,]>[D,A,] [D,A,][D,A,] [D,D][D,D] [D,A,]2 | [D,D]2 [F,A,]>[F,A,] [E,A,][E,A,] [D,A,]>[D,A,] | %13
w: sol- dier, Christ- ian sol- dier, The|world must be tak- en for the|
 [A,,A,]2 [A,C]>[A,C] [A,C]2 [D,D]>[D,D] | [D,D]>[D,D] [D,D][D,D] [D,A,][D,A,] [F,A,]>[F,A,] x | %15
w: Lord, for the Lord, Ev- er|on- ward, ev- er on- ward be your|
 [G,B,][G,B,][G,B,][G,B,] [G,D][G,D] [G,D]2 | [A,C]2 [A,C]>[A,C] [A,,A,][A,,A,] [A,,A,]>[A,,G,] | %17
w: watch- word, be your watch- word, The|world must be tak- en for the|
 [D,F,]2 [D,G,][D,G,] [D,F,]2 |] %18
w: Lord, for the Lord.|
V:4
 x2 | x8 | x8 | x8 | x8 | x8 | x8 | A,2 A,>A, x4 | x6 || x2 | x8 | x8 | x8 | x8 | x9 | x8 | x8 | %17
 x6 |] %18

